public/assets/images/logo.svg

<svg width="112" height="30" viewBox="0 0 112 30" fill="none" xmlns="http://www.w3.org/2000/svg">
<path d="M23.9609 26.1289C22.6589 27.2487 21.2005 28.1081 19.5859 28.707C17.9714 29.306 16.2982 29.6055 14.5664 29.6055C13.2383 29.6055 11.9557 29.4297 10.7188 29.0781C9.49479 28.7396 8.34245 28.2578 7.26172 27.6328C6.19401 26.9948 5.21745 26.2331 4.33203 25.3477C3.44661 24.4622 2.6849 23.4857 2.04688 22.418C1.42188 21.3372 0.933594 20.1849 0.582031 18.9609C0.24349 17.724 0.0742188 16.4414 0.0742188 15.1133C0.0742188 13.7852 0.24349 12.5026 0.582031 11.2656C0.933594 10.0286 1.42188 8.8763 2.04688 7.80859C2.6849 6.72786 3.44661 5.74479 4.33203 4.85938C5.21745 3.97396 6.19401 3.21875 7.26172 2.59375C8.34245 1.95573 9.49479 1.46745 10.7188 1.12891C11.9557 0.777344 13.2383 0.601562 14.5664 0.601562C16.2982 0.601562 17.9714 0.901042 19.5859 1.5C21.2005 2.08594 22.6589 2.94531 23.9609 4.07812L20.9922 8.96094C20.1719 8.07552 19.2018 7.39844 18.082 6.92969C16.9622 6.44792 15.7904 6.20703 14.5664 6.20703C13.3294 6.20703 12.1706 6.44141 11.0898 6.91016C10.0091 7.37891 9.0651 8.01693 8.25781 8.82422C7.45052 9.61849 6.8125 10.5625 6.34375 11.6562C5.875 12.737 5.64062 13.8893 5.64062 15.1133C5.64062 16.3372 5.875 17.4896 6.34375 18.5703C6.8125 19.638 7.45052 20.5755 8.25781 21.3828C9.0651 22.1901 10.0091 22.8281 11.0898 23.2969C12.1706 23.7656 13.3294 24 14.5664 24C15.7904 24 16.9622 23.7656 18.082 23.2969C19.2018 22.8151 20.1719 22.1315 20.9922 21.2461L23.9609 26.1289ZM56.2437 15.1133C56.2437 16.4414 56.068 17.724 55.7164 18.9609C55.3779 20.1849 54.8961 21.3372 54.2711 22.418C53.6461 23.4857 52.8909 24.4622 52.0055 25.3477C51.1201 26.2331 50.1435 26.9948 49.0758 27.6328C48.0081 28.2578 46.8557 28.7396 45.6187 29.0781C44.3818 29.4297 43.0992 29.6055 41.7711 29.6055C40.443 29.6055 39.1604 29.4297 37.9234 29.0781C36.6995 28.7396 35.5471 28.2578 34.4664 27.6328C33.3987 26.9948 32.4221 26.2331 31.5367 25.3477C30.6513 24.4622 29.8896 23.4857 29.2516 22.418C28.6266 21.3372 28.1383 20.1849 27.7867 18.9609C27.4482 17.724 27.2789 16.4414 27.2789 15.1133C27.2789 13.7852 27.4482 12.5026 27.7867 11.2656C28.1383 10.0286 28.6266 8.8763 29.2516 7.80859C29.8896 6.74089 30.6513 5.76432 31.5367 4.87891C32.4221 3.99349 33.3987 3.23828 34.4664 2.61328C35.5471 1.98828 36.6995 1.50651 37.9234 1.16797C39.1604 0.816406 40.443 0.640625 41.7711 0.640625C43.0992 0.640625 44.3818 0.816406 45.6187 1.16797C46.8557 1.50651 48.0081 1.98828 49.0758 2.61328C50.1435 3.23828 51.1201 3.99349 52.0055 4.87891C52.8909 5.76432 53.6461 6.74089 54.2711 7.80859C54.8961 8.8763 55.3779 10.0286 55.7164 11.2656C56.068 12.5026 56.2437 13.7852 56.2437 15.1133ZM50.6773 15.1133C50.6773 13.8893 50.443 12.737 49.9742 11.6562C49.5055 10.5625 48.8674 9.61849 48.0602 8.82422C47.2659 8.01693 46.3219 7.37891 45.2281 6.91016C44.1474 6.44141 42.9951 6.20703 41.7711 6.20703C40.5341 6.20703 39.3753 6.44141 38.2945 6.91016C37.2138 7.37891 36.2698 8.01693 35.4625 8.82422C34.6552 9.61849 34.0172 10.5625 33.5484 11.6562C33.0797 12.737 32.8453 13.8893 32.8453 15.1133C32.8453 16.3372 33.0797 17.4896 33.5484 18.5703C34.0172 19.638 34.6552 20.5755 35.4625 21.3828C36.2698 22.1901 37.2138 22.8281 38.2945 23.2969C39.3753 23.7656 40.5341 24 41.7711 24C42.9951 24 44.1474 23.7656 45.2281 23.2969C46.3219 22.8281 47.2659 22.1901 48.0602 21.3828C48.8674 20.5755 49.5055 19.638 49.9742 18.5703C50.443 17.4896 50.6773 16.3372 50.6773 15.1133ZM84.7766 14.9961C84.7766 16.2852 84.6073 17.5286 84.2687 18.7266C83.9432 19.9115 83.4745 21.0247 82.8625 22.0664C82.2505 23.0951 81.5214 24.0391 80.675 24.8984C79.8286 25.7448 78.8846 26.474 77.843 27.0859C76.8013 27.6979 75.6815 28.1732 74.4836 28.5117C73.2987 28.8372 72.0617 29 70.7727 29H62.3352V0.992188H70.7727C72.0617 0.992188 73.2987 1.16146 74.4836 1.5C75.6815 1.82552 76.8013 2.29427 77.843 2.90625C78.8846 3.51823 79.8286 4.25391 80.675 5.11328C81.5214 5.95964 82.2505 6.90365 82.8625 7.94531C83.4745 8.97396 83.9432 10.0872 84.2687 11.2852C84.6073 12.4701 84.7766 13.707 84.7766 14.9961ZM79.1711 14.9961C79.1711 13.8372 78.9497 12.75 78.507 11.7344C78.0773 10.7188 77.4784 9.83333 76.7102 9.07812C75.9549 8.3099 75.063 7.70443 74.0344 7.26172C73.0187 6.81901 71.9315 6.59766 70.7727 6.59766H67.9797V23.3945H70.7727C71.9315 23.3945 73.0187 23.1797 74.0344 22.75C75.063 22.3073 75.9549 21.7083 76.7102 20.9531C77.4784 20.1849 78.0773 19.293 78.507 18.2773C78.9497 17.2487 79.1711 16.1549 79.1711 14.9961ZM103.505 29H97.9187V20.2305C96.6818 19.918 95.5424 19.4167 94.5008 18.7266C93.4721 18.0365 92.5867 17.2161 91.8445 16.2656C91.1023 15.3021 90.5229 14.2409 90.1062 13.082C89.7026 11.9102 89.5008 10.6797 89.5008 9.39062V0.992188H95.1062V9.39062C95.1062 10.1589 95.2495 10.888 95.5359 11.5781C95.8354 12.2552 96.2391 12.8477 96.7469 13.3555C97.2547 13.8633 97.8471 14.2669 98.5242 14.5664C99.2143 14.8529 99.9435 14.9961 100.712 14.9961C101.48 14.9961 102.203 14.8529 102.88 14.5664C103.57 14.2669 104.169 13.8633 104.677 13.3555C105.184 12.8477 105.582 12.2552 105.868 11.5781C106.167 10.888 106.317 10.1589 106.317 9.39062V0.992188H111.903V9.39062C111.903 10.6797 111.695 11.9102 111.278 13.082C110.874 14.2409 110.302 15.3021 109.559 16.2656C108.817 17.2161 107.932 18.0365 106.903 18.7266C105.874 19.4167 104.742 19.918 103.505 20.2305V29Z" fill="#0072FF"/>
</svg>

<svg xmlns="http://www.w3.org/2000/svg" width="112" height="30" fill="none"><path fill="#0072FF" d="M23.96 26.129a14.264 14.264 0 0 1-4.374 2.578 14.317 14.317 0 0 1-5.02.898c-1.328 0-2.61-.175-3.847-.527a14.703 14.703 0 0 1-3.457-1.445 15.037 15.037 0 0 1-2.93-2.285 15.04 15.04 0 0 1-2.285-2.93 15.332 15.332 0 0 1-1.465-3.457 14.51 14.51 0 0 1-.508-3.848c0-1.328.17-2.61.508-3.847.352-1.237.84-2.39 1.465-3.457a14.78 14.78 0 0 1 2.285-2.95 14.459 14.459 0 0 1 2.93-2.265 14.23 14.23 0 0 1 3.457-1.465 14.005 14.005 0 0 1 3.847-.527c1.732 0 3.405.299 5.02.898a13.765 13.765 0 0 1 4.375 2.578l-2.969 4.883a8.279 8.279 0 0 0-2.91-2.031 8.804 8.804 0 0 0-3.516-.723 8.642 8.642 0 0 0-3.476.703 9.063 9.063 0 0 0-2.832 1.914 8.773 8.773 0 0 0-1.914 2.832 8.594 8.594 0 0 0-.703 3.457c0 1.224.234 2.377.703 3.457a9.128 9.128 0 0 0 1.914 2.813 9.064 9.064 0 0 0 2.832 1.914c1.08.469 2.24.703 3.476.703a9.016 9.016 0 0 0 3.516-.703 8.503 8.503 0 0 0 2.91-2.05l2.969 4.882Zm32.284-11.016c0 1.328-.176 2.611-.528 3.848a14.705 14.705 0 0 1-1.445 3.457 14.462 14.462 0 0 1-2.266 2.93 15.037 15.037 0 0 1-2.93 2.285 14.259 14.259 0 0 1-3.456 1.445c-1.237.352-2.52.527-3.848.527-1.328 0-2.61-.175-3.848-.527a14.704 14.704 0 0 1-3.457-1.445 15.037 15.037 0 0 1-2.93-2.285 15.04 15.04 0 0 1-2.284-2.93 15.334 15.334 0 0 1-1.465-3.457 14.51 14.51 0 0 1-.508-3.848c0-1.328.17-2.61.508-3.847.351-1.237.84-2.39 1.465-3.457a15.037 15.037 0 0 1 2.285-2.93 14.458 14.458 0 0 1 2.93-2.266 14.706 14.706 0 0 1 3.456-1.445 14.006 14.006 0 0 1 3.848-.527c1.328 0 2.61.175 3.848.527a14.26 14.26 0 0 1 6.386 3.71 14.258 14.258 0 0 1 3.71 6.387c.353 1.238.529 2.52.529 3.848Zm-5.567 0a8.593 8.593 0 0 0-.703-3.457 8.773 8.773 0 0 0-1.914-2.832 8.773 8.773 0 0 0-2.832-1.914 8.593 8.593 0 0 0-3.457-.703 8.642 8.642 0 0 0-3.477.703 9.063 9.063 0 0 0-2.831 1.914 8.774 8.774 0 0 0-1.915 2.832 8.595 8.595 0 0 0-.703 3.457c0 1.224.235 2.377.703 3.457a9.129 9.129 0 0 0 1.914 2.813 9.064 9.064 0 0 0 2.832 1.914c1.081.469 2.24.703 3.477.703a8.594 8.594 0 0 0 3.457-.703 8.773 8.773 0 0 0 2.832-1.914 9.128 9.128 0 0 0 1.914-2.813 8.593 8.593 0 0 0 .703-3.457Zm34.1-.117c0 1.29-.17 2.533-.508 3.73a13.755 13.755 0 0 1-1.407 3.34 14.82 14.82 0 0 1-2.187 2.832 14.056 14.056 0 0 1-2.832 2.188 14.251 14.251 0 0 1-3.36 1.426 13.947 13.947 0 0 1-3.71.488h-8.438V.992h8.438c1.289 0 2.526.17 3.71.508a13.682 13.682 0 0 1 6.192 3.613c.846.847 1.576 1.79 2.188 2.832a13.335 13.335 0 0 1 1.406 3.34 13.44 13.44 0 0 1 .508 3.711Zm-5.606 0a8.073 8.073 0 0 0-.664-3.262 8.122 8.122 0 0 0-1.797-2.656 8.324 8.324 0 0 0-2.676-1.816 8.073 8.073 0 0 0-3.261-.664H67.98v16.797h2.793a8.284 8.284 0 0 0 3.261-.645 8.343 8.343 0 0 0 4.473-4.473 8.212 8.212 0 0 0 .664-3.28ZM103.505 29h-5.586v-8.77a11.034 11.034 0 0 1-3.418-1.503 11.403 11.403 0 0 1-2.657-2.461 11.633 11.633 0 0 1-1.738-3.184 11.255 11.255 0 0 1-.605-3.691V.992h5.605v8.399c0 .768.144 1.497.43 2.187.3.677.703 1.27 1.21 1.777.509.508 1.101.912 1.778 1.211.69.287 1.42.43 2.188.43.768 0 1.491-.143 2.168-.43.69-.3 1.289-.703 1.797-1.21.507-.508.905-1.1 1.191-1.778.299-.69.449-1.42.449-2.187V.992h5.586v8.399c0 1.289-.208 2.52-.625 3.691a11.23 11.23 0 0 1-1.719 3.184c-.742.95-1.627 1.77-2.656 2.46a10.797 10.797 0 0 1-3.398 1.505V29Z"/></svg>
